!!!!SEGMENT: pl-gd--ee-1638--002-002_marenzio-luca--motettorum-pro-festis-totius-anni-in-festo-s-stephani-protomart-sepelterunt-stephanum.krn
!!!cenid: 15xx:1005
!!!COM: Marenzio, Luca
!!!COM-rismID: pe30003955
!!!CDT: ~1553-1599/08/22
!!!CNT: Italian
!!!GTL: Motettorum pro festis totius anni
!!!OTL: In Festo S. Stephani Protomart./Sepelterunt Stephanum
!!!OMV: 002
!!!PDT: 1588
!!!AGN:
!!!SMS-siglum: PL-GD
!!!SMS-shelfmark: Ee 1638
!!!SMS-shelfwork: 002-002 G
!!!SMS-variant:
!!!SMS-altvar:
!!!NIFC-rismSourceID: 990039238
!!!NIFC-islandoraID: pl-gd:57883
!!!URL-pdf-islandora: https://repozytorium.nifc.pl/islandora/object/pl-gd%3A57883/datastream/PDF/view
!!!URL-scan: https://polish.musicsources.pl/pl/lokalizacje/galeria/klocki-introligatorskie/655 @EN{Scan on Polish Music Sources Website} @PL{Skany w portalu Dziedzictwo Muzyki Polskiej w otwartym dostępie}
!!!ONB-nifc: UWAGA: Cantus: s. 617 (lewa), Altus: s. 465 (lewa), Tenor: s. 313 (lewa), Bassus: s. 161 (lewa)
!!!AIN: 1 alto 1 bass 1 soprn 1 tenor
!!!key: a
**kern	**text	**kern	**text	**kern	**text	**kern	**text
*part4	*part4	*part3	*part3	*part2	*part2	*part1	*part1
*staff4	*staff4	*staff3	*staff3	*staff2	*staff2	*staff1	*staff1
*I"BASSVS	*	*I"TENOR	*	*I"ALTVS	*	*I"CANTVS	*
*I'B	*	*I'T	*	*I'A	*	*I'S	*
*ICvox	*	*ICvox	*	*ICvox	*	*ICvox	*
*Ibass	*	*Itenor	*	*Ialto	*	*Isoprn	*
*clefF3	*	*clefC3	*	*clefC2	*	*clefG2	*
*k[]	*	*k[]	*	*k[]	*	*k[]	*
*a:	*	*a:	*	*a:	*	*a:	*
*M2/1	*	*M2/1	*	*M2/1	*	*M2/1	*
*met(C|)	*	*met(C|)	*	*met(C|)	*	*met(C)	*
=1-	=1-	=1-	=1-	=1-	=1-	=1-	=1-
!LO:TX:a:i:t=In Festo S.Stephani Protomart.	!	!LO:TX:a:i:t=In Festo S.Stephani Protomart.	!	!LO:TX:a:i:t=In Festo S.Stephani Protomart.	!	!LO:TX:a:i:t=In Festo S.Stephani Protomart.	!
1r	.	1r	.	1r	.	0ee	SE-
0A	SE-	0e	SE-	0c#X	SE-	.	.
=2-	=2-	=2-	=2-	=2-	=2-	=2-	=2-
.	.	.	.	.	.	1.a	-pe-
1.D	-pe-	1.f	-pe-	1.d	-pe-	.	.
.	.	.	.	.	.	2b-X/	-li-
=3-	=3-	=3-	=3-	=3-	=3-	=3-	=3-
.	.	.	.	.	.	0a	-e-
2C#X/	-li-	2e\	-li-	2e/	-li-	.	.
1D	-e-	1d	-e-	1f	-e-	.	.
=4-	=4-	=4-	=4-	=4-	=4-	=4-	=4-
1AA	-runt	2c/	-runt	2e/	-runt	1a	-rṹnt
.	.	2.e\	Ste-	2.cny/	Ste-	.	.
2.A\	Ste-	.	.	.	.	1.a	Ste-
.	.	4d\	.	4d/	.	.	.
.	.	4c/	.	1e\	.	.	.
4G\	.	4B/	.	.	.	.	.
=5-	=5-	=5-	=5-	=5-	=5-	=5-	=5-
2F/	.	2A/	.	.	.	.	.
2F/	-pha-	2A/	-pha-	2d/	-pha-	2a/	-pha-
0E	-num	1B	-nṹ(m)	2e/	-nṹ(m)	2g/	-num
.	.	.	.	1g\	vi-	1bny\	vi-
=6-	=6-	=6-	=6-	=6-	=6-	=6-	=6-
.	.	1r	.	.	.	.	.
.	.	.	.	2e/	-ri	2cc\	-ri
1r	.	0e	ſe-	2g\	ti-	2b/	ti-
.	.	.	.	1a\	-mo-	2a/	-mo-
=7-	=7-	=7-	=7-	=7-	=7-	=7-	=7-
1E	ſe-	.	.	.	.	1b	-ra-
.	.	.	.	2g#X\	-ra-	.	.
1.F	-pe-	1.A	-pe-	1a	-ti	2a/	-ti
.	.	.	.	.	.	2cc\	ſe-
=8-	=8-	=8-	=8-	=8-	=8-	=8-	=8-
.	.	.	.	2r	.	2dd\	-pe-
!LO:SIC:v:t=custos D	!	!	!	!LO:SIC:v:t=custos f	!	!LO:SIC:v:t=custos a	!
2E/	-li-	2G#X/	-li-	2e/	ſe-	2ee\	-li-
!LO:LB:g=original	!	!LO:SIC:v:t=custos E	!	!LO:LB:g=original	!	!LO:LB:g=original	!
1D	-e-	1A	-e-	1f	-pe-	4a/	-e-
.	.	.	.	.	.	4g/	.
.	.	.	.	.	.	4a/	.
.	.	.	.	.	.	4b/	.
!	!	!LO:LB:g=original	!	!	!	!	!
=9-	=9-	=9-	=9-	=9-	=9-	=9-	=9-
1Cny	-runt	1E	-ru(n)t	1gny	-li-	4cc\	.
.	.	.	.	.	.	4dd\	.
.	.	.	.	.	.	4ee\	.
.	.	.	.	.	.	4dd\	.
1r	.	2.e\	Ste-	1g	-e-	4cc\	.
.	.	.	.	.	.	4b/	.
.	.	.	.	.	.	2.b/	.
.	.	4d\	.	.	.	.	.
=10-	=10-	=10-	=10-	=10-	=10-	=10-	=10-
0r	.	2c/	.	1e	-runt	.	.
.	.	.	.	.	.	8a/	.
.	.	.	.	.	.	8g/	.
.	.	2c/	-pha-	.	.	2a/	.
.	.	2c/	-num	1r	.	1b	-rṹ(n)t
.	.	1e\	vi­	.	.	.	.
=11-	=11-	=11-	=11-	=11-	=11-	=11-	=11-
1r	.	.	.	1r	.	1.cc	Ste-
.	.	2f\	ri	.	.	.	.
0A	ſe-	2e\	ti-	0a	ſe-	.	.
.	.	2d\	-mo-	.	.	1dd\	-pha-
=12-	=12-	=12-	=12-	=12-	=12-	=12-	=12-
.	.	1e	-ra-	.	.	.	.
.	.	.	.	.	.	2cc#X\	.
1.B-X	-pe-	4d\	-ti	1.d	-pe-	1dd	-num
.	.	4e\	.	.	.	.	.
.	.	4f\	.	.	.	.	.
.	.	4g\	.	.	.	.	.
=13-	=13-	=13-	=13-	=13-	=13-	=13-	=13-
.	.	4f\	.	.	.	2r	.
.	.	8e\	.	.	.	.	.
.	.	8d\	.	.	.	.	.
2A\	-li-	4e\	.	2c#X/	-li-	2a/	ſe-
.	.	4f\	.	.	.	.	.
1G	-e-	2g\	.	1d	-e-	2b/	-pe-
.	.	2d\	ſe-	.	.	2b/	-li-
=14-	=14-	=14-	=14-	=14-	=14-	=14-	=14-
2F/	-runt	2f\	-pe-	1A	-runt-	2.ccny\	-e-
!	!	!LO:SIC:v:t=custos c	!	!	!	!	!
2.A\	Ste-	2e\	-li-	.	.	.	.
.	.	.	.	.	.	4dd\	.
!	!	!LO:LB:g=original	!	!	!	!LO:SIC:v:t=custos a	!
.	.	2c/	-e-	2.a\	-Ste-	2ee\	.
4G\	.	.	.	.	.	.	.
!	!	!	!	!	!	!LO:LB:g=original	!
4F/	.	2c/	-runt	.	.	2a/	-rṹ(n)t
4E/	.	.	.	4g\	.	.	.
=15-	=15-	=15-	=15-	=15-	=15-	=15-	=15-
2D/	.	2.d\	Ste-	2f\	.	4b/	Ste-
.	.	.	.	.	.	4a/	.
2D/	-pha-	.	.	2f\	-pha-	1a	.
.	.	4c/	.	.	.	.	.
1E	-num	2.B/	.	1e	-num	.	.
.	.	.	.	.	.	2g#X/	-pha-
.	.	4B/	-pha-	.	.	.	.
=16-	=16-	=16-	=16-	=16-	=16-	=16-	=16-
2r	.	1A	-num	2r	.	2.a/	-num
1c	vi-	.	.	1e	vi-	.	.
.	.	.	.	.	.	4b/	.
.	.	1r	.	.	.	1cc	.
2A\	-ri	.	.	2f\	-ri	.	.
=17-	=17-	=17-	=17-	=17-	=17-	=17-	=17-
!LO:SIC:v:t=custos d	!	!	!	!	!	!	!
2c\	ti-	0r	.	2e/	ti-	0r	.
!LO:LB:g=original	!	!	!	!LO:SIC:v:t=custos e	!	!	!
1d	-mo-	.	.	2d/	-mo-	.	.
!	!	!	!	!LO:LB:g=original	!	!	!
.	.	.	.	1e	-ra-	.	.
2c#X\	-ra-	.	.	.	.	.	.
=18-	=18-	=18-	=18-	=18-	=18-	=18-	=18-
1d	-ti	2r	.	0d	-ti	2r	.
.	.	1f	vi-	.	.	1a	vi-
1r	.	.	.	.	.	.	.
.	.	2d\	-ri	.	.	2b-X/	-ri
=19-	=19-	=19-	=19-	=19-	=19-	=19-	=19-
0d	ſe-	2f\	ti-	1r	.	2a/	ti-
.	.	1g	-mo-	.	.	2gny/	-mo-
.	.	.	.	0d	ſe-	1a	-ra-
.	.	2f#X\	-ra-	.	.	.	.
=20-	=20-	=20-	=20-	=20-	=20-	=20-	=20-
1.G	-pe-	2.g\	-ti	.	.	2g/	-ti
.	.	.	.	.	.	2g/	ſe-
.	.	8fny\	.	.	.	.	.
.	.	8e\	.	.	.	.	.
.	.	1d	.	2g\	-pe-	2b-X/	-pe-
2F#X/	-li-	.	.	2a\	-li-	2a/	-li-
=21-	=21-	=21-	=21-	=21-	=21-	=21-	=21-
1G	-e-	1r	.	1b-X	-e-	1g	-e-
1D	-runt	0a	ſe-	2a\	-runt	2.f/	-runt
.	.	.	.	4d/	Ste-	.	.
.	.	.	.	4e/	.	4g/	.
=22-	=22-	=22-	=22-	=22-	=22-	=22-	=22-
2.d\	Ste-	.	.	4f\	.	1a	.
.	.	.	.	4g\	.	.	.
.	.	.	.	2.a\	.	.	.
4cny\	.	.	.	.	.	.	.
2B-X\	.	1.d	-pe-	.	.	2r	.
.	.	.	.	4g\	.	.	.
!	!	!	!	!	!	!LO:SIC:v:t=custos ff	!
2B-\	-pha-	.	.	4g\	.	2dd\	ſe-
.	.	.	.	8f\	.	.	.
.	.	.	.	8g\	.	.	.
!	!	!	!	!	!	!LO:LB:g=original	!
=23-	=23-	=23-	=23-	=23-	=23-	=23-	=23-
1A	-num	.	.	2.a\	.	2ff\	-pe-
.	.	2c#X/	-li-	.	.	2ee\	-li-
.	.	.	.	4g\	.	.	.
1r	.	1d	-e-	2f\	.	1dd	-e-
.	.	.	.	4e/	.	.	.
!	!	!	!	!LO:SIC:v:t=custos e	!	!	!
.	.	.	.	4d/	.	.	.
!	!	!	!	!LO:LB:g=original	!	!	!
=24-	=24-	=24-	=24-	=24-	=24-	=24-	=24-
!	!	!LO:SIC:v:t=custos c	!	!	!	!	!
2r	.	1A	-runt	2e/	.	2cc\	-runt
1A	vi-	.	.	2e/	-pha-	4cc\	Ste-
.	.	.	.	.	.	4bny/	.
!	!	!LO:LB:g=original	!	!	!	!	!
.	.	2cny/	Ste-	1f	-num	4a/	.
.	.	.	.	.	.	4g/	.
2B-X\	-ri	2d\	-pha-	.	.	4f/	.
.	.	.	.	.	.	4g/	.
=25-	=25-	=25-	=25-	=25-	=25-	=25-	=25-
2A\	ti-	1e	-num	1r	.	2a/	.
!LO:SIC:v:t=custos A	!	!	!	!	!	!	!
2G\	-mo-	.	.	.	.	2b/	-pha-
!LO:LB:g=original	!	!	!	!	!	!	!
0.A	-ra-	2r	.	2r	.	2.cc\	-num
.	.	1c\	vi-	1e\	vi-	.	.
.	.	.	.	.	.	4b/	.
=26-	=26-	=26-	=26-	=26-	=26-	=26-	=26-
.	.	.	.	.	.	0.a	.
.	.	2A/	-ri	2f\	-ri	.	.
.	.	2c/	ti-	2e/	ti-	.	.
.	.	2.d\	-mo-	2d/	-mo-	.	.
=27-	=27-	=27-	=27-	=27-	=27-	=27-	=27-
1A	-ti	.	.	1e	-ra-	.	.
.	.	8c#X/	.	.	.	.	.
.	.	8B/	.	.	.	.	.
.	.	2c#X/	.	.	.	.	.
1r	.	2.d\	-ra-	2.f\	-ti	2r	.
.	.	.	.	.	.	1a/	vi-
.	.	8cny/	.	8e/	.	.	.
.	.	8B/	.	8d/	.	.	.
=28-	=28-	=28-	=28-	=28-	=28-	=28-	=28-
*	*	*lig	*	*	*	*	*
1r	.	1A	.	4cny/	.	.	.
.	.	.	.	4d/	.	.	.
.	.	.	.	4e/	.	2cc\	-ri
.	.	.	.	4f\	.	.	.
2r	.	1.Gny	.	2g\	.	2.b/	ti-
1E/	vi-	.	.	1e\	vi-	.	.
.	.	.	.	.	.	4a/	-mo-
*	*	*Xlig	*	*	*	*	*
=29-	=29-	=29-	=29-	=29-	=29-	=29-	=29-
!	!	!	!	!	!	!LO:SIC:v:t=custos a	!
.	.	.	.	.	.	2b/	-ra-
!	!	!	!	!	!	!LO:LB:g=original	!
2Fny/	-ri	2A/	.	2c/	-ri	2a/	-ti
2E/	ti-	1B	-ti	2e/	ti-	1r	.
2D/	-mo-	.	.	2f\	-mo-	.	.
=30-	=30-	=30-	=30-	=30-	=30-	=30-	=30-
!	!	!	!	!LO:SIC:v:t=custos c#	!	!	!
00E\	-ra-	2r	.	00e	-ra-	2r	.
*	*	*	*ij	*	*	*	*
.	.	1B	vi-	.	.	1g	vi-
.	.	2c/	-ri	.	.	2e/	-ri
!	!	!	!	!LO:LB:g=original	!	!	!
=31-	=31-	=31-	=31-	=31-	=31-	=31-	=31-
.	.	2B/	ti-	.	.	2g/	ti-
!	!	!LO:SIC:v:t=custos B	!	!	!	!	!
.	.	2A/	-mo-	.	.	1a	-mo-
!	!	!LO:LB:g=original	!	!	!	!	!
.	.	1B	-ra-	.	.	.	.
.	.	.	.	.	.	2g#X/	-ra-
=32-	=32-	=32-	=32-	=32-	=32-	=32-	=32-
1AA	-ti	1A	-ti	1c#X	-ti	1a	-ti
*	*	*	*Xij	*	*	*	*
2.A\	et	2.c#X/	et	2.e/	et	1r	.
4A\	fe-	4B/	fe-	4e/	fe-	.	.
=33-	=33-	=33-	=33-	=33-	=33-	=33-	=33-
2A\	-ce-	2c#yX/	-ce-	2e/	-ce-	2.a/	et
2A\	-runt	2c#/	-runt	2e/	-runt	.	.
.	.	.	.	.	.	4a/	fe-
1D	plan-	1.d	plan-	1.f	plan-	2a/	-ce-
.	.	.	.	.	.	2a/	-runt
=34-	=34-	=34-	=34-	=34-	=34-	=34-	=34-
1G	-ctṹ(m)	.	.	.	.	2b/	plan-
.	.	2cny/	-ctṹ(m)	2e/	-ctṹ(m)	2cc\	-ctṹ(m)
1G	ma-	1B	ma-	1d	ma-	2dd\	ma-
.	.	.	.	.	.	2gny/	-gnṹ(m)
=35-	=35-	=35-	=35-	=35-	=35-	=35-	=35-
2C/	-gnum	1c	-gnum	0.e	-gnum	2r	.
1c	ſu-	.	.	.	.	1ee	ſu-
.	.	1r	.	.	.	.	.
4Bny\	.	.	.	.	.	4dd\	.
!LO:SIC:v:t=custos G	!	!	!	!	!	!LO:SIC:v:t=custos b	!
4A\	.	.	.	.	.	4cc\	.
!LO:LB:g=original	!	!	!	!	!	!LO:LB:g=original	!
=36-	=36-	=36-	=36-	=36-	=36-	=36-	=36-
2G\	.	1r	.	.	.	2b/	.
1A	-per	.	.	.	.	2cc\	-per-
.	.	2.e\	et	1r	.	1b	-e-
2G#X\	e-	.	.	.	.	.	.
.	.	4e\	fe-	.	.	.	.
=37-	=37-	=37-	=37-	=37-	=37-	=37-	=37-
1A	-um	2e\	-ce-	2.a\	et	2a/	-um
.	.	2e\	-runt	.	.	2.cc\	et
.	.	.	.	4a\	fe-	.	.
1r	.	1.f	plan-	2a\	-ce-	.	.
.	.	.	.	.	.	4cc\	fe-
.	.	.	.	2a\	-runt	2cc\	-ce-
=38-	=38-	=38-	=38-	=38-	=38-	=38-	=38-
0r	.	.	.	1.cc	plan-	2a/	-runt
.	.	2e\	-ctum	.	.	2g/	plan-
.	.	0d	ma-	.	.	2f#X/	-ctum
.	.	.	.	2bny\	-ctṹ(m)	2.g/	ma-
=39-	=39-	=39-	=39-	=39-	=39-	=39-	=39-
1r	.	.	.	1a	ma-	.	.
.	.	.	.	.	.	8f#X/	.
.	.	.	.	.	.	8e/	.
.	.	.	.	.	.	2f#X/	.
!	!	!LO:SIC:v:t=custos c	!	!	!	!	!
2.E/	et	0e	-gnum	0g	-gnum	2g/	-gnṹ(m)
.	.	.	.	.	.	2cc\	ſu-
4E/	fe-	.	.	.	.	.	.
!	!	!LO:LB:g=original	!	!	!	!	!
=40-	=40-	=40-	=40-	=40-	=40-	=40-	=40-
2E/	-ce-	.	.	.	.	2b/	-per
2E/	-runt	.	.	.	.	2.cc\	e-
*	*	*	*ij	*	*	*	*
1.F	plan-	2.c/	et	1r	.	.	.
!	!	!	!	!	!	!LO:SIC:v:t=custos a	!
.	.	.	.	.	.	4b/	.
!	!	!	!	!	!	!LO:LB:g=original	!
.	.	.	.	.	.	4a/	.
.	.	4c/	fe-	.	.	4g/	.
=41-	=41-	=41-	=41-	=41-	=41-	=41-	=41-
.	.	2c/	-ce-	1.cc	ſu-	2.a/	.
2E/	-ctu(m)	2c/	-runt	.	.	.	.
.	.	.	.	.	.	4g/	.
1D	ma-	1.d	plan-	.	.	1fny	.
.	.	.	.	4b\	.	.	.
!	!	!	!	!LO:SIC:v:t=custos g	!	!	!
.	.	.	.	4a\	.	.	.
!	!	!	!	!LO:LB:g=original	!	!	!
=42-	=42-	=42-	=42-	=42-	=42-	=42-	=42-
0E	-gnum	.	.	2g\	.	1e	-um
.	.	2c/	-ctum	1a	-per	.	.
.	.	1B	ma-	.	.	2.ee\	et
.	.	.	.	2g#X\	e-	.	.
.	.	.	.	.	.	4ee\	fe-
=43-	=43-	=43-	=43-	=43-	=43-	=43-	=43-
00r	.	1A	-gnum	1a	-um	2ee\	-ce-
.	.	.	.	.	.	2ee\	-runt
*	*	*	*Xij	*	*	*	*
.	.	2.d\	ſu-	2r	.	1.ff	plan-
.	.	.	.	2.a\	ſu-	.	.
.	.	4e\	.	.	.	.	.
=44-	=44-	=44-	=44-	=44-	=44-	=44-	=44-
.	.	2f\	.	.	.	.	.
.	.	.	.	4b\	-per	.	.
.	.	2c/	-per	2.cc\	e-	2ee\	-ctṹ(m)
.	.	1g	e-	.	.	1dd	ma-
.	.	.	.	8b\	.	.	.
.	.	.	.	8a\	.	.	.
.	.	.	.	2b\	.	.	.
=45-	=45-	=45-	=45-	=45-	=45-	=45-	=45-
2.A\	et	1c	-um	2e/	-um	0ee	-gnv(m)
*	*	*	*	*	*ij	*	*
.	.	.	.	1a	ſu-	.	.
4A\	fe-	.	.	.	.	.	.
2A\	-ce-	2r	.	.	.	.	.
2A\	-runt	2c/	ſu-	2a\	-per	.	.
=46-	=46-	=46-	=46-	=46-	=46-	=46-	=46-
1.B-X	plan-	2d\	-per	0f	e-	2r	.
.	.	4d\	e-	.	.	1dd	plan-
.	.	4c\	.	.	.	.	.
.	.	4d\	.	.	.	.	.
.	.	4e\	.	.	.	.	.
!LO:SIC:v:t=custos G	!	!	!	!	!	!	!
2A\	-ctum	2.f\	.	.	.	2cc\	-ctu(m)
!LO:LB:g=original	!	!	!	!	!	!	!
=47-	=47-	=47-	=47-	=47-	=47-	=47-	=47-
1Gny	ma-	.	.	1gny	-um	1b-X	ma-
.	.	8e\	.	.	.	.	.
!	!	!LO:SIC:v:t=custos e	!	!	!	!	!
.	.	8d\	.	.	.	.	.
.	.	2e\	.	.	.	.	.
2F/	-gnṹ(m)	2f\	-um	2r	.	2.a/	-gnum
*	*	*	*	*	*Xij	*	*
1A\	ſu-	4e\	.	1cc\	ſu-	.	.
.	.	4d\	.	.	.	8g/	.
!	!	!	!	!	!	!LO:SIC:v:t=custos e	!
.	.	.	.	.	.	8f/	.
!	!	!	!	!	!	!LO:LB:g=original	!
=48-	=48-	=48-	=48-	=48-	=48-	=48-	=48-
.	.	0c	.	.	.	1e	.
4G\	.	.	.	4b\	.	.	.
!	!	!	!	!LO:SIC:v:t=custos g	!	!	!
4F\	.	.	.	4a\	.	.	.
!	!	!	!	!LO:LB:g=original	!	!	!
2E/	.	.	.	2g\	.	1r	.
2F\	-per	.	.	2a\	-per	.	.
=49-	=49-	=49-	=49-	=49-	=49-	=49-	=49-
2.C/	e-	2r	.	2.g\	e-	2r	.
.	.	1e	ſu-	.	.	1cc	ſu-
4D/	.	.	.	4f\	.	.	.
0.E	.	.	.	0.e	.	.	.
.	.	4d\	.	.	.	4bny/	.
.	.	4c\	.	.	.	4a/	.
=50-	=50-	=50-	=50-	=50-	=50-	=50-	=50-
.	.	2B/	.	.	.	2g/	.
.	.	2c/	-per	.	.	1a	-per
.	.	1B	e-	.	.	.	.
.	.	.	.	.	.	2g#X/	e-
=51-	=51-	=51-	=51-	=51-	=51-	=51-	=51-
00AA	-um.	00A	-um.	00e	-um.	00a	-um.
==	==	==	==	==	==	==	==
*-	*-	*-	*-	*-	*-	*-	*-
!!!system-decoration: [(s1,s2,s3,s4)]
!!!ENC: Mateusz Solarz
!!!END: 2022-06-30
!!!ENC: Jan Barakat
!!!END: 2022-07-11
!!!YEC: Copyright 2022 Narodowy Instytut Fryderyka Chopina (https://polishscores.org)
!!!YEM: Licence CC BY 4.0 (https://creativecommons.org/licenses/by/4.0)
